X:281
T:Johnny Magic(?). JaW.281
T:?aka. JaW.281
M:6/8
L:1/8
Q:3/8=120
S:James Winder Ms, Lancashire, 1835-41
R:.Jig
O:England
A:Wyresdale,Lancashire
Z:vmp.Chris Partington, Aug 2004
K:G
d/c/|BGG ~G2B|cAA ~A2f|gfe dec|BGG G2:|!
|:g/a/|bab gab|~aga fga|(gf)g bag|fdd ~d2d|!
ece c’ec|dBd edc|”_Bar Missing in MS”gfe dec|BGG ~G2:|

